lib/flags/tn-tunisia.svg

<svg xmlns="http://www.w3.org/2000/svg" fill="none" aria-hidden="true" viewBox="0 0 42 30"><g id="Country=TN - Tunisia, Size=sm (36x24)" filter="url(#filter0_dd_91_24458)"><g clip-path="url(#clip0_91_24458)"><g id="flag"><mask id="mask0_91_24458" width="36" height="24" x="3" y="2" maskUnits="userSpaceOnUse" style="mask-type:alpha"><rect id="mask" width="36" height="24" x="3" y="2" fill="white"/></mask><g mask="url(#mask0_91_24458)"><g id="contents"><path id="background" fill="#E31D1C" fill-rule="evenodd" d="M3 2V26H39V2H3Z" clip-rule="evenodd"/><mask id="mask1_91_24458" width="36" height="24" x="3" y="2" maskUnits="userSpaceOnUse" style="mask-type:alpha"><path id="background_2" fill="white" fill-rule="evenodd" d="M3 2V26H39V2H3Z" clip-rule="evenodd"/></mask><g mask="url(#mask1_91_24458)"><path id="Oval 59" fill="#F7FCFF" fill-rule="evenodd" d="M21 22C25.9706 22 30 18.4183 30 14C30 9.58172 25.9706 6 21 6C16.0294 6 12 9.58172 12 14C12 18.4183 16.0294 22 21 22Z" clip-rule="evenodd"/><path id="Combined shape 1695" fill="#E31D1C" fill-rule="evenodd" d="M22.5778 19.6507C22.5778 19.6507 17.8344 18.5003 17.8344 13.9734C17.8344 9.44637 22.5778 8.19744 22.5778 8.19744C20.6164 7.52264 14.8762 8.55802 14.8762 13.9734C14.8762 19.3887 20.7765 20.364 22.5778 19.6507ZM22.3167 12.9883L19.9634 13.7526L22.4927 14.5385L22.5779 16.6434L24.1172 15.0081L26.6553 15.1683L24.8266 13.8421L25.9279 11.927L23.7766 12.5707L22.2863 10.9147L22.3167 12.9883Z" clip-rule="evenodd"/></g></g></g></g></g></g><defs><filter id="filter0_dd_91_24458" width="42" height="30" x="0" y="0" color-interpolation-filters="sRGB" filterUnits="userSpaceOnUse"><feFlood flood-opacity="0" result="BackgroundImageFix"/><feColorMatrix in="SourceAlpha" result="hardAlpha" values="0 0 0 0 0 0 0 0 0 0 0 0 0 0 0 0 0 0 127 0"/><feOffset dy="1"/><feGaussianBlur stdDeviation="1"/><feColorMatrix values="0 0 0 0 0.0627451 0 0 0 0 0.0941176 0 0 0 0 0.156863 0 0 0 0.06 0"/><feBlend in2="BackgroundImageFix" result="effect1_dropShadow_91_24458"/><feColorMatrix in="SourceAlpha" result="hardAlpha" values="0 0 0 0 0 0 0 0 0 0 0 0 0 0 0 0 0 0 127 0"/><feOffset dy="1"/><feGaussianBlur stdDeviation="1.5"/><feColorMatrix values="0 0 0 0 0.0627451 0 0 0 0 0.0941176 0 0 0 0 0.156863 0 0 0 0.1 0"/><feBlend in2="effect1_dropShadow_91_24458" result="effect2_dropShadow_91_24458"/><feBlend in="SourceGraphic" in2="effect2_dropShadow_91_24458" result="shape"/></filter><clipPath id="clip0_91_24458"><rect width="36" height="24" x="3" y="2" fill="white" rx="2"/></clipPath></defs></svg>

<svg xmlns="http://www.w3.org/2000/svg" fill="none" aria-hidden="true" viewBox="0 0 42 30"><g filter="url(#a)"><g clip-path="url(#b)"><mask id="c" width="36" height="24" x="3" y="2" maskUnits="userSpaceOnUse" style="mask-type:alpha"><path fill="#fff" d="M3 2h36v24H3z"/></mask><g mask="url(#c)"><path fill="#E31D1C" fill-rule="evenodd" d="M3 2v24h36V2H3Z" clip-rule="evenodd"/><mask id="d" width="36" height="24" x="3" y="2" maskUnits="userSpaceOnUse" style="mask-type:alpha"><path fill="#fff" fill-rule="evenodd" d="M3 2v24h36V2H3Z" clip-rule="evenodd"/></mask><g fill-rule="evenodd" clip-rule="evenodd" mask="url(#d)"><path fill="#F7FCFF" d="M21 22c4.97 0 9-3.582 9-8s-4.03-8-9-8-9 3.582-9 8 4.03 8 9 8Z"/><path fill="#E31D1C" d="M22.578 19.65s-4.744-1.15-4.744-5.677c0-4.527 4.744-5.776 4.744-5.776-1.962-.674-7.702.361-7.702 5.776 0 5.416 5.9 6.391 7.702 5.678Zm-.261-6.662-2.354.765 2.53.786.085 2.104 1.54-1.635 2.537.16-1.828-1.326 1.1-1.915-2.15.644-1.49-1.656.03 2.073Z"/></g></g></g></g><defs><clipPath id="b"><rect width="36" height="24" x="3" y="2" fill="#fff" rx="2"/></clipPath><filter id="a" width="42" height="30" x="0" y="0" color-interpolation-filters="sRGB" filterUnits="userSpaceOnUse"><feFlood flood-opacity="0" result="BackgroundImageFix"/><feColorMatrix in="SourceAlpha" result="hardAlpha" values="0 0 0 0 0 0 0 0 0 0 0 0 0 0 0 0 0 0 127 0"/><feOffset dy="1"/><feGaussianBlur stdDeviation="1"/><feColorMatrix values="0 0 0 0 0.0627451 0 0 0 0 0.0941176 0 0 0 0 0.156863 0 0 0 0.06 0"/><feBlend in2="BackgroundImageFix" result="effect1_dropShadow_91_24458"/><feColorMatrix in="SourceAlpha" result="hardAlpha" values="0 0 0 0 0 0 0 0 0 0 0 0 0 0 0 0 0 0 127 0"/><feOffset dy="1"/><feGaussianBlur stdDeviation="1.5"/><feColorMatrix values="0 0 0 0 0.0627451 0 0 0 0 0.0941176 0 0 0 0 0.156863 0 0 0 0.1 0"/><feBlend in2="effect1_dropShadow_91_24458" result="effect2_dropShadow_91_24458"/><feBlend in="SourceGraphic" in2="effect2_dropShadow_91_24458" result="shape"/></filter></defs></svg>
